lumium-space/public/logo/parts/none/raw/delta.svg

<?xml version="1.0" encoding="UTF-8" standalone="no"?>
<svg
   width="3.77778in"
   height="2.77778in"
   viewBox="0 0 340 250"
   version="1.1"
   id="svg3"
   sodipodi:docname="delta.svg"
   inkscape:version="1.1.2 (0a00cf5339, 2022-02-04, custom)"
   xmlns:inkscape="http://www.inkscape.org/namespaces/inkscape"
   xmlns:sodipodi="http://sodipodi.sourceforge.net/DTD/sodipodi-0.dtd"
   xmlns="http://www.w3.org/2000/svg"
   xmlns:svg="http://www.w3.org/2000/svg">
  <defs
     id="defs7" />
  <sodipodi:namedview
     id="namedview5"
     pagecolor="#ffffff"
     bordercolor="#666666"
     borderopacity="1.0"
     inkscape:pageshadow="2"
     inkscape:pageopacity="0.0"
     inkscape:pagecheckerboard="0"
     inkscape:document-units="in"
     showgrid="false"
     inkscape:zoom="52.782694"
     inkscape:cx="79.495754"
     inkscape:cy="140.9174"
     inkscape:window-width="1724"
     inkscape:window-height="2103"
     inkscape:window-x="1728"
     inkscape:window-y="0"
     inkscape:window-maximized="1"
     inkscape:current-layer="svg3" />
  <path
     id="delta"
     fill="none"
     stroke="#000000"
     stroke-width="1"
     d="m 72.09,119.7 c -0.83,0 -1.5,0.67 -1.5,1.5 0,0.83 0.67,1.5 1.5,1.5 1.924736,0.2191 4.535877,3.06641 4.675709,6.05438 L 68.77,142.46 c -0.11,0.21 -0.18,0.44 -0.18,0.69 0,0.83 0.68,1.5 1.5,1.5 0.55,0 1.02,-0.28 1.29,-0.72 l 7.1,-12.55 c 1.91,4.29 4.3,9.71 4.34,9.8 0.85,2.06 2.88,3.51 5.25,3.51 0.59,0 1.16,-0.09 1.69,-0.25 0.61,-0.19 1.06,-0.76 1.06,-1.43 0,-0.83 -0.68,-1.51 -1.51,-1.51 -0.15,0 -0.3,0.03 -0.44,0.07 -0.25,0.08 -0.52,0.12 -0.79,0.12 -1.15,0 -2.13,-0.72 -2.52,-1.74 -0.24,-0.54 -5.84,-13.25 -6.6,-14.87 l -0.13,-0.28 c -0.77,-1.65 -2.35,-5.1 -6.74,-5.1 z"
     sodipodi:nodetypes="sscccsscccscsscscccs" />
</svg>

<?xml version="1.0" encoding="UTF-8" standalone="no"?>
<!DOCTYPE svg PUBLIC "-//W3C//DTD SVG 20010904//EN"
              "http://www.w3.org/TR/2001/REC-SVG-20010904/DTD/svg10.dtd">

<svg xmlns="http://www.w3.org/2000/svg"
     width="3.77778in" height="2.77778in"
     viewBox="0 0 340 250">
  <path id="delta"
        fill="none" stroke="black" stroke-width="1"
        d="M 72.09,119.70
           C 71.26,119.70 70.59,120.37 70.59,121.20
             70.59,122.03 71.26,122.70 72.09,122.70
             74.37,122.70 75.22,124.15 76.09,126.06
             76.09,126.06 76.54,126.06 76.54,126.06
             77.29,126.89 77.26,127.66 77.26,127.66
             77.26,127.66 68.77,142.46 68.77,142.46
             68.66,142.67 68.59,142.90 68.59,143.15
             68.59,143.98 69.27,144.65 70.09,144.65
             70.64,144.65 71.11,144.37 71.38,143.93
             71.38,143.93 78.48,131.38 78.48,131.38
             80.39,135.67 82.78,141.09 82.82,141.18
             83.67,143.24 85.70,144.69 88.07,144.69
             88.66,144.69 89.23,144.60 89.76,144.44
             90.37,144.25 90.82,143.68 90.82,143.01
             90.82,142.18 90.14,141.50 89.31,141.50
             89.16,141.50 89.01,141.53 88.87,141.57
             88.62,141.65 88.35,141.69 88.08,141.69
             86.93,141.69 85.95,140.97 85.56,139.95
             85.32,139.41 79.72,126.70 78.96,125.08
             78.96,125.08 78.83,124.80 78.83,124.80
             78.06,123.15 76.48,119.70 72.09,119.70 Z" />
</svg>
